assets/images/afrikons/next-outline_1.svg

<svg viewBox="0 0 50 50" xmlns="http://www.w3.org/2000/svg"><g fill="none"><path d="m0 0h50v50h-50z"/><path d="m0 0h50v50h-50z"/><path d="m3.69 48.1a4.43 4.43 0 0 1 -2.35-3.94v-38.32a4.43 4.43 0 0 1 2.35-3.94 4.6 4.6 0 0 1 2.19-.56 4.56 4.56 0 0 1 2.44.71l30.32 19.16a4.51 4.51 0 0 1 2 2.67 4.64 4.64 0 0 1 .09 1.12 4.47 4.47 0 0 1 -2.09 3.79l-30.32 19.21a4.52 4.52 0 0 1 -4.63.1z"/></g><path d="m3.05.73a5.81 5.81 0 0 1 6 .2l30.3 19.16a5.8 5.8 0 0 1 0 9.83l-30.35 19.16a5.85 5.85 0 0 1 -6 .19 5.75 5.75 0 0 1 -3-5.11v-38.32a5.75 5.75 0 0 1 3.05-5.11zm35.59 28.06a4.47 4.47 0 0 0 2.09-3.79 4.64 4.64 0 0 0 -.14-1.12 4.51 4.51 0 0 0 -2-2.67l-30.27-19.16a4.56 4.56 0 0 0 -2.44-.71 4.6 4.6 0 0 0 -2.19.56 4.43 4.43 0 0 0 -2.35 3.94v38.32a4.43 4.43 0 0 0 2.35 3.94 4.52 4.52 0 0 0 4.63-.1z"/><path d="m48.66.19h1.34v49.62h-1.34z"/></svg>

<svg xmlns="http://www.w3.org/2000/svg" viewBox="0 0 50 50"><defs><style>.cls-1{fill:none;}</style></defs><title>next-outline_1</title><g id="Layer_2" data-name="Layer 2"><g id="Layer_1-2" data-name="Layer 1"><rect class="cls-1" width="50" height="50"/><rect class="cls-1" width="50" height="50"/><path class="cls-1" d="M3.69,48.1a4.43,4.43,0,0,1-2.35-3.94V5.84A4.43,4.43,0,0,1,3.69,1.9a4.6,4.6,0,0,1,2.19-.56,4.56,4.56,0,0,1,2.44.71L38.64,21.21a4.51,4.51,0,0,1,2,2.67A4.64,4.64,0,0,1,40.73,25a4.47,4.47,0,0,1-2.09,3.79h0L8.32,48A4.52,4.52,0,0,1,3.69,48.1Z"/><path d="M3.05.73a5.81,5.81,0,0,1,6,.2L39.35,20.09a5.8,5.8,0,0,1,0,9.83L9,49.08a5.85,5.85,0,0,1-6,.19,5.75,5.75,0,0,1-3-5.11V5.84A5.75,5.75,0,0,1,3.05.73ZM38.64,28.79h0A4.47,4.47,0,0,0,40.73,25a4.64,4.64,0,0,0-.14-1.12,4.51,4.51,0,0,0-2-2.67L8.32,2.05a4.56,4.56,0,0,0-2.44-.71,4.6,4.6,0,0,0-2.19.56A4.43,4.43,0,0,0,1.34,5.84V44.16A4.43,4.43,0,0,0,3.69,48.1,4.52,4.52,0,0,0,8.32,48Z"/><rect x="48.66" y="0.19" width="1.34" height="49.62"/></g></g></svg>
